X:1
T:I Love Jesus
T:Bentley DeForest Ackley
T:I Love Jesus
T:Public Domain
T:Public Domain
C:Bentley DeForest Ackley
Z:Public Domain
%%score ( 1 2 ) 3
L:1/8
M:4/4
K:Eb
V:1 treble 
V:2 treble 
V:3 bass 
V:1
 [EG]3 [FA] [GB][EG][EF]E | [EA]2 [Ec]2 [EB]4 | [EB]3 [Ec] [EB][EG][DF]E | [DA]2 [EG]2 [DF]4 | %4
w: 1.~I love Je- sus, for He|my soul; From|His cross the tides of mer-|roll; Long and|
w: 2.~I love Je- sus, for He’s|ways near, Ev-|er read- y with a word|cheer; Ev- ’ry|
w: 3.~I love Je- sus when the|beams glow; Love|Him, when the storm- y tem-|blow; I will|
 [EG]3 [FA] [GB][EG][DF]E | [EA]2 [Ac]2 [Ae]4 | [GB]3 [Gc] [GB][EG]E[EF] | [EG]2 [DF]2 E4 || %8
w: far He sought me, when a-|Now, He leads|me in His own right way.||
w: day, and ev- ’ry pass- ing|I will trust|Him for His keep- ing pow’r.|love Je- sus;|
w: praise Him while the ag- es|Hal- le- lu-|jah! for He saved my soul.||
"^Refrain" [Ge]3 [GB] [Ac] [GB]3 | [EG]2 [AB]2 (z2 A2) | [Ge]3 [GB] [Ac] [GB]3 | %11
w: |||
w: my King; Of His|mer- cy *|* will sing; I|
w: |||
 [EG]2 [EF]2 [DF]4 | [EG]3 [FA] [GB][EG][DF]E | [EA]2 [Ac]2 [Ae]4 | [GB]3 [Gc] [GB][EG]E[EF] | %15
w: ||||
w: will fol- low|in His paths of light, Till|see Him in|His glo- ry bright. * *|
w: ||||
 [EG]2 [DF]2 E4 |] %16
w: |
w: |
w: |
V:2
 x7 E | x8 | x7 E | x8 | x7 E | x8 | x6 E x | x4 E4 || x8 | x4 B4 | x8 | x8 | x7 E | x8 | x6 E x | %15
w: saved||cy||stray;|||||||||||
w: al-||of||hour,||I|He’s||I|||I|||
w: joy-||pests||roll;|||||||||||
 x4 E4 |] %16
w: |
w: |
w: |
V:3
 [E,B,]3 [E,B,] [E,E][E,B,][E,A,][E,G,] | [C,A,]2 [A,,A,]2 [E,G,]4 | %2
 [E,G,]3 [E,A,] [E,G,][E,B,][A,B,][G,B,] | [F,B,]2 [E,B,]2 [B,,B,]4 | %4
 [E,B,]3 [E,B,] [E,E][E,B,][F,B,][G,_D] | [A,C]2 [A,E]2 [A,,C]4 | %6
 [E,E]3 [E,E] [E,E][E,B,][C,=A,][C,A,] | [B,,B,]2 [B,,A,]2 [E,G,]4 || [E,B,]3 [E,E] [E,E] [E,E]3 | %9
 [E,B,]2 [F,C]2 ([G,E]2 [F,D]2) | [E,B,]3 [E,E] [E,E] [E,E]3 | [E,B,]2 [C,=A,]2 [B,,B,]4 | %12
 [E,B,]3 [E,B,] [E,E][E,B,][F,B,][G,_D] | [A,C]2 [A,E]2 [A,,C]4 | %14
 [E,E]3 [E,E] [E,E][E,B,][C,=A,][C,A,] | [B,,B,]2 [B,,A,]2 [E,G,]4 |] %16

